src/images/bg/train/topbar.svg

<svg fill="none" height="20" viewBox="0 0 23 20" width="23" xmlns="http://www.w3.org/2000/svg" xmlns:xlink="http://www.w3.org/1999/xlink"><linearGradient id="a" gradientUnits="userSpaceOnUse" x1="3.95197" x2="20.0045" y1="14.237" y2="6.40764"><stop offset="0" stop-color="#b07e6e"/><stop offset=".01" stop-color="#b98b7e"/><stop offset=".04" stop-color="#c59e94"/><stop offset=".07" stop-color="#cfaca5"/><stop offset=".11" stop-color="#d5b6b0"/><stop offset=".16" stop-color="#d9bbb7"/><stop offset=".3" stop-color="#dabdb9"/><stop offset="1" stop-color="#b07e6e"/></linearGradient><path clip-rule="evenodd" d="m19.7257 12.9077-15.17366.3468c-.46977.0127-.93318-.1106-1.3346-.355-.40142-.2443-.7238-.5993-.92828-1.0224l-.27617-.5663c-.18479-.3766-.26979-.7943-.24687-1.2132.02292-.4188.15307-.82478.37784-1.17895.22478-.35417.53667-.64466.90591-.84372s.78342-.29998 1.20284-.2931l15.46299.24643c.4543.00972.8972.14464 1.2799.38987.3826.24523.6903.59127.8889 1.00006.173.36883.2512.77491.2277 1.18161s-.1481.8012-.3624 1.1476c-.2144.3464-.5117.634-.8651.8366s-.7518.3138-1.159.3237z" fill="url(#a)" fill-rule="evenodd"/></svg>

<svg width="23" height="20" viewBox="0 0 23 20" fill="none" xmlns="http://www.w3.org/2000/svg">
<path fill-rule="evenodd" clip-rule="evenodd" d="M19.7257 12.9077L4.55204 13.2545C4.08227 13.2672 3.61886 13.1439 3.21744 12.8995C2.81602 12.6552 2.49364 12.3002 2.28916 11.8771L2.01299 11.3108C1.8282 10.9342 1.7432 10.5165 1.76612 10.0976C1.78904 9.6788 1.91919 9.27282 2.14396 8.91865C2.36874 8.56448 2.68063 8.27399 3.04987 8.07493C3.41911 7.87587 3.83329 7.77495 4.25271 7.78183L19.7157 8.02826C20.17 8.03798 20.6129 8.1729 20.9956 8.41813C21.3782 8.66336 21.6859 9.0094 21.8845 9.41819V9.41819C22.0575 9.78702 22.1357 10.1931 22.1122 10.5998C22.0887 11.0065 21.9641 11.401 21.7498 11.7474C21.5354 12.0938 21.2381 12.3814 20.8847 12.584C20.5313 12.7866 20.1329 12.8978 19.7257 12.9077Z" fill="url(#paint0_linear)"/>
<defs>
<linearGradient id="paint0_linear" x1="3.95197" y1="14.237" x2="20.0045" y2="6.40764" gradientUnits="userSpaceOnUse">
<stop stop-color="#B07E6E"/>
<stop offset="0.01" stop-color="#B98B7E"/>
<stop offset="0.04" stop-color="#C59E94"/>
<stop offset="0.07" stop-color="#CFACA5"/>
<stop offset="0.11" stop-color="#D5B6B0"/>
<stop offset="0.16" stop-color="#D9BBB7"/>
<stop offset="0.3" stop-color="#DABDB9"/>
<stop offset="1" stop-color="#B07E6E"/>
</linearGradient>
</defs>
</svg>
